X: 1
T: String Quartet in C Major opus 33 no 3 mvt 4
C: Franz Joseph Haydn
%%abc-version 2.0
%%abcx-abcm2ps-target-version 5.9.1 (29 Sep 2008)
%%abc-creator hum2abc beta
%%abcx-conversion-date 2021/02/14 14:38:27
%%abc-copyright Copyright (c) 1994, 2000 Center for Computer Assisted Research in the Humanities
%%abc-edited-by Frances Bennion
%%abcx-initial-encoding-date 1997/04/15
%%gracespace 0 6 6
%%humdrum-veritas 2227284434
%%humdrum-veritas-data 3311355798
%%linebreak <none>
%%barnumbers 0
L: 1/8
M: 2/4
N: Derived from op33n3-04.krn
Q: "Finale: Rondo. Presto"
V: 1
V: 2
V: 3
V: 4 clef=alto
V: 5 clef=bass
K: C
[V:1]ge ge [I:setbarnb2] |
[V:2][Ec]z [Ec]z |
[V:3]z4 |
[V:4][G,E]z [EG,]z |
[V:5]Cz Cz |
[V:1]g/f/e/f/ ge |
[V:2][E2c2] z2 |
[V:3]z4 |
[V:4][G,2E2] z2 |
[V:5]C2 z2 |
[V:1]g/f/e/f/ g/f/e/f/ |
[V:2][Ec][cE] [Ec][cE] |
[V:3]z4 |
[V:4][G,E][EG,] [G,E][G,E] |
[V:5]CC CC |
[V:1]g/f/e/f/ ge |
[V:2][E2c2] z2 |
[V:3]z4 |
[V:4][E2G,2] z2 |
[V:5]C2 z2 |
[V:1]aa gf/g/ |
[V:2]^cc cc |
[V:3]z4 |
[V:4]EE EE |
[V:5]A,A, A,A, |
[V:1]ff gf/g/ |
[V:2]dd BB |
[V:3]z4 |
[V:4]DD DD |
[V:5]DD G,G, |
[V:1]ee fe/d/ |
[V:2]cc AG/F/ |
[V:3]z4 |
[V:4]CC F,F, |
[V:5]CC F,F, |
[V:1]c2 Bz |
[V:2]E2 Dz |
[V:3]z4 |
[V:4]G,2 z2 |
[V:5]G,2 G,,z |
[V:1]gz gz |
[V:2]dB dB |
[V:3]z4 |
[V:4]BG BG |
[V:5]z4 |
[V:1]g2 z2 |
[V:2]d/c/B/c/ dB |
[V:3]z4 |
[V:4]B/A/G/A/ BG |
[V:5]z4 |
[V:1]gz gz |
[V:2]ec ec |
[V:3]z4 |
[V:4]cG cG |
[V:5]z4 |
[V:1]g2 z2 |
[V:2]e/d/c/d/ ec |
[V:3]z4 |
[V:4]c/B/A/B/ cG |
[V:5]z4 |
[V:1]gg gg |
[V:2]f/g/f/g/ e/f/e/f/ |
[V:3]z4 |
[V:4]d/e/d/e/ c/d/c/d/ |
[V:5]z4 |
[V:1]g2 z2 |
[V:2]d/c/B/A/ G/F/E/D/ |
[V:3]z4 |
[V:4]B/A/G/F/ E/D/C/B,/ |
[V:5]z4 |
[V:1]c'z c'z |
[V:2]Ez [ec]z |
[V:3]z4 |
[V:4]Cz Gz |
[V:5]_B,G, B,G, |
[V:1]c'2 z2 |
[V:2][e2c2] z2 |
[V:3]z4 |
[V:4]G2 z2 |
[V:5]_B,/A,/G,/A,/ B,G, |
[V:1]c'c' c'c' |
[V:2][ec][ce] [ec][ec] |
[V:3]z4 |
[V:4]GG GG |
[V:5]_B,/A,/G,/A,/ B,/A,/G,/A,/ |
[V:1]c'2 z2 |
[V:2][c2e2] z2 |
[V:3]z4 |
[V:4]G2 z2 |
[V:5]_B,/A,/G,/A,/ B,G, |
[V:1]a/b/c'/a/ gg |
[V:2]c4- |
[V:3]z4 |
[V:4]C4 |
[V:5]F,F, E,E, |
[V:1]f/g/a/f/ ee |
[V:2]cB cc |
[V:3]z4 |
[V:4]FF GG |
[V:5]D,D, C,C, |
[V:1]d/e/f/d/ B/c/d/B/ |
[V:2]AA D/E/F/D/ |
[V:3]z4 |
[V:4]AA FF |
[V:5]F,F, G,G, |
[V:1]c2 z2 |
[V:2]E2 z2 |
[V:3]z4 |
[V:4]E2 z2 |
[V:5]C,2 z2 |
[V:1]A3 ^G |
[V:2]E4- |
[V:3]A,3 B, |
[V:4]C2 z2 |
[V:5]A,,2 z2 |
[V:1]A^G AB |
[V:2]E4 |
[V:3]CB, CB, |
[V:4]z4 |
[V:5]z4 |
[V:1]c/d/c/B/ AB |
[V:2]E4 |
[V:3]A,B, CB, |
[V:4][E2C2] z2 |
[V:5]A,,2 z2 |
[V:1]c/d/c/B/ Ac |
[V:2]E4 |
[V:3]A,B, Cz |
[V:4][E2C2] z2 |
[V:5]A,,2 z2 |
[V:1]e3 ^d |
[V:2]B4 |
[V:3]E3 ^F |
[V:4][E2G,2] z2 |
[V:5]E,,2 z2 |
[V:1]e^d e^f |
[V:2]B4 |
[V:3]G^F GF |
[V:4]z4 |
[V:5]z4 |
[V:1]g/a/g/^f/ ef |
[V:2]B4 |
[V:3]E^F GF |
[V:4][G,2E2] z2 |
[V:5]E,2 z2 |
[V:1]g/a/g/^f/ ee |
[V:2]B3 z |
[V:3]E^F Gz |
[V:4][G,2E2] z2 |
[V:5]E,2 z2 |
[V:1]f3 e |
[V:2]c4- |
[V:3]z4 |
[V:4]F3 G |
[V:5]A,A, A,A, |
[V:1]ff ac' |
[V:2]c3 A |
[V:3]z4 |
[V:4]FF A,A, |
[V:5]A,A, A,A, |
[V:1]e4- |
[V:2]G4 |
[V:3]z4 |
[V:4]B,B, B,B, |
[V:5]B,B, B,B, |
[V:1]e^d/e/ ^fd |
[V:2]^FF/G/ AF |
[V:3]z4 |
[V:4]B,B, B,B, |
[V:5]B,,B,, B,,B,, |
[V:1]e2 e2- |
[V:2]E2 E2- |
[V:3]z4 |
[V:4]E2 z2 |
[V:5]E,2 z2 |
[V:1]ed cB |
[V:2]ED CB, |
[V:3]z4 |
[V:4]z4 |
[V:5]z4 |
[V:1]eg fd |
[V:2]EG FB |
[V:3]z4 |
[V:4]z4 |
[V:5]z4 |
[V:1]c2 z2 |
[V:2]c4- |
[V:3]z4 |
[V:4]GE GE |
[V:5]EC EC |
[V:1]z4 |
[V:2]cc cc |
[V:3]z4 |
[V:4]G/F/E/F/ GE |
[V:5]E/D/C/D/ EC |
[V:1]af af |
[V:2]c4- |
[V:3]z4 |
[V:4]F4- |
[V:5]D4- |
[V:1]a/g/f/g/ af |
[V:2]cc cc |
[V:3]z4 |
[V:4]FF FF |
[V:5]DD DD |
[V:1]d'4- |
[V:2]BG BG |
[V:3]z4 |
[V:4][F4G,4] |
[V:5]DF DF |
[V:1]d'd' d'd' |
[V:2]B/A/G/A/ BG |
[V:3]z4 |
[V:4][F4G,4] |
[V:5]D/E/F/E/ DF |
[V:1]d'4- |
[V:2]ge ge |
[V:3]z4 |
[V:4]EC EC |
[V:5]E2 z2 |
[V:1]d'c' c'c' |
[V:2]g/f/e/f/ ge |
[V:3]z4 |
[V:4]E/D/C/D/ EC |
[V:5]z4 |
[V:1]c'a c'a |
[V:2]^f4- |
[V:3]z4 |
[V:4]^FA FA |
[V:5]A,C A,C |
[V:1]c'/b/a/b/ c'a |
[V:2]f^f ff |
[V:3]z4 |
[V:4]^F/G/A/G/ FA |
[V:5]A,/B,/C/B,/ A,C |
[V:1]bg bg |
[V:2]g4- |
[V:3]z4 |
[V:4]Bd Bd |
[V:5]G,B, G,B, |
[V:1]b/a/g/a/ bg |
[V:2]gg gg |
[V:3]z4 |
[V:4]B/c/d/c/ Bd |
[V:5]G,/A,/B,/A,/ G,B, |
[V:1]^c'4- |
[V:2]ge ge |
[V:3]z4 |
[V:4]G4- |
[V:5]E,G, E,G, |
[V:1]c'^c' c'c' |
[V:2]g/^f/e/f/ ge |
[V:3]z4 |
[V:4]GG GG |
[V:5]E,/^F,/G,/F,/ E,G, |
[V:1]d'd c'/b/a/c'/ |
[V:2]^f2 zD |
[V:3]z4 |
[V:4]Az A/G/^F/A/ |
[V:5]D,2 z2 |
[V:1]bg a/g/^f/a/ |
[V:2]G,G z2 |
[V:3]z4 |
[V:4]GB z2 |
[V:5]z2 C/B,/A,/C/ |
[V:1]gb a/b/c'/a/ |
[V:2]z2 ^f/g/a/f/ |
[V:3]z4 |
[V:4]z3 D |
[V:5]B,G, z2 |
[V:1]bd' ^f/g/a/f/ |
[V:2]gb zD |
[V:3]z4 |
[V:4]B,G, z2 |
[V:5]z2 A,/B,/C/A,/ |
[V:1]g/a/b/g/ ^f/g/a/f/ |
[V:2]B/c/d/B/ A/B/c/A/ |
[V:3]z4 |
[V:4]z4 |
[V:5]G,2 z2 |
[V:1]e/^f/g/e/ d/e/f/d/ |
[V:2]G/A/B/G/ ^F/G/A/F/ |
[V:3]z4 |
[V:4]z4 |
[V:5]z4 |
[V:1]c/d/e/c/ B/c/d/B/ |
[V:2]E2 z2 |
[V:3]z4 |
[V:4]E/^F/G/E/ D/E/F/D/ |
[V:5]z4 |
[V:1]A/B/c/A/ G/A/B/G/ |
[V:2]z4 |
[V:3]z4 |
[V:4]C/D/E/C/ B,/C/D/B,/ |
[V:5]z4 |
[V:1]^Fz Gz |
[V:2]Cz B,z |
[V:3]z4 |
[V:4]A,z G,z |
[V:5]A,/B,/C/A,/ G,/A,/B,/G,/ |
[V:1]Az Bz |
[V:2]Dz Gz |
[V:3]z4 |
[V:4]^F,z E,z |
[V:5]^F,/G,/A,/F,/ E,/F,/G,/E,/ |
[V:1]cc' bb |
[V:2]AA GG |
[V:3]z4 |
[V:4]D,D DD |
[V:5]D,/E,/^F,/D,/ G,G, |
[V:1]a/b/c'/a/ ^f/g/a/f/ |
[V:2]ee cc |
[V:3]z4 |
[V:4]CC A,A, |
[V:5]C,C, D,D, |
[V:1]g2 z2 |
[V:2]B2 z2 |
[V:3]z4 |
[V:4]DB, DB, |
[V:5]B,G, B,G, |
[V:1]dB dB |
[V:2]BG BG |
[V:3]z4 |
[V:4]z4 |
[V:5]z4 |
[V:1]z4 |
[V:2]z4 |
[V:3]z4 |
[V:4]BG BG |
[V:5]DB, DB, |
[V:1]d'b d'b |
[V:2]bg bg |
[V:3]z4 |
[V:4]z4 |
[V:5]z4 |
[V:1]z4 |
[V:2]z4 |
[V:3]z4 |
[V:4]FD FD |
[V:5]DB, DB, |
[V:1]gB gB |
[V:2]fd fd |
[V:3]z4 |
[V:4]z4 |
[V:5]z4 |
[V:1]z2 gB |
[V:2]z2 fd |
[V:3]z4 |
[V:4]FD z2 |
[V:5]DB, z2 |
[V:1]z2 gB |
[V:2]z2 fd |
[V:3]z4 |
[V:4]FD z2 |
[V:5]DB, z2 |
[V:1]z4 |
[V:2]z4 |
[V:3]z4 |
[V:4]z4 |
[V:5]z4 |
[V:1]ge ge |
[V:2][cE]z [Ec]z |
[V:3]z4 |
[V:4][G,E]z [EG,]z |
[V:5]C,z C,z |
[V:1]g/f/e/f/ ge |
[V:2][E2c2] z2 |
[V:3]z4 |
[V:4][G,2E2] z2 |
[V:5]C,2 z2 |
[V:1]g/f/e/f/ g/f/e/f/ |
[V:2][cE][Ec] [cE][cE] |
[V:3]z4 |
[V:4][G,E][G,E] [EG,][G,E] |
[V:5]C,C, C,C, |
[V:1]g/f/e/f/ ge |
[V:2][c2E2] z2 |
[V:3]z4 |
[V:4][G,2E2] z2 |
[V:5]C,2 z2 |
[V:1]aa gf/g/ |
[V:2]^cc cc |
[V:3]z4 |
[V:4]EE EE |
[V:5]A,,A,, A,,A,, |
[V:1]ff gf/g/ |
[V:2]dd BB |
[V:3]z4 |
[V:4]A,A, DD |
[V:5]D,D, G,,G,, |
[V:1]ee fe/d/ |
[V:2]cc AG/F/ |
[V:3]z4 |
[V:4]G,G, A,A, |
[V:5]C,C, F,,F,, |
[V:1]c2 Bz |
[V:2]E2 Dz |
[V:3]z4 |
[V:4]G,2- G,z |
[V:5]G,,2 G,,z |
[V:1]gz gz |
[V:2]dB dB |
[V:3]z4 |
[V:4]BG BG |
[V:5]z4 |
[V:1]g2 z2 |
[V:2]d/c/B/c/ dB |
[V:3]z4 |
[V:4]B/A/G/A/ BG |
[V:5]z4 |
[V:1]gz gz |
[V:2]ec ec |
[V:3]z4 |
[V:4]cG cG |
[V:5]z4 |
[V:1]g2 z2 |
[V:2]e/d/c/d/ ec |
[V:3]z4 |
[V:4]c/B/A/B/ cG |
[V:5]z4 |
[V:1]gg gg |
[V:2]f/g/f/g/ e/f/e/f/ |
[V:3]z4 |
[V:4]d/e/d/e/ c/d/c/d/ |
[V:5]z4 |
[V:1]g2 z2 |
[V:2]d/c/B/A/ G/F/E/D/ |
[V:3]z4 |
[V:4]B/A/G/F/ E/D/C/B,/ |
[V:5]z4 |
[V:1]c'z c'z |
[V:2]Ez [ec]z |
[V:3]z4 |
[V:4]Cz Gz |
[V:5]_B,G, B,G, |
[V:1]c'2 z2 |
[V:2][e2c2] z2 |
[V:3]z4 |
[V:4]G2 z2 |
[V:5]_B,/A,/G,/A,/ B,G, |
[V:1]c'c' c'c' |
[V:2][ce][ec] [ec][ec] |
[V:3]z4 |
[V:4]GG GG |
[V:5]_B,/A,/G,/A,/ B,/A,/G,/A,/ |
[V:1]c'2 z2 |
[V:2][e2c2] z2 |
[V:3]z4 |
[V:4]G2 z2 |
[V:5]_B,/A,/G,/A,/ B,G, |
[V:1]a/b/c'/a/ gg |
[V:2]c4- |
[V:3]z4 |
[V:4]C4 |
[V:5]F,F, E,E, |
[V:1]f/g/a/f/ ee |
[V:2]cB cc |
[V:3]z4 |
[V:4]FF GG |
[V:5]D,D, C,C, |
[V:1]d/e/f/d/ B/c/d/B/ |
[V:2]AA D/E/F/D/ |
[V:3]z4 |
[V:4]AA FF |
[V:5]F,F, G,G, |
[V:1]c3 B |
[V:2]_E3 F |
[V:3]z4 |
[V:4]G4- |
[V:5]C,2 z2 |
[V:1]cB cd |
[V:2]_ED ED |
[V:3]z4 |
[V:4]G4- |
[V:5]z4 |
[V:1]_e/f/e/d/ cd |
[V:2]CD _ED |
[V:3]z4 |
[V:4]G4- |
[V:5]C,2 z2 |
[V:1]_e/f/e/d/ ce |
[V:2]CD _Ec |
[V:3]z4 |
[V:4]G4 |
[V:5]C,2 z2 |
[V:1]g3 ^f |
[V:2]_B3 A |
[V:3]z4 |
[V:4]D4- |
[V:5]G,,2 z2 |
[V:1]g^f ga |
[V:2]_BA BA |
[V:3]z4 |
[V:4]D4- |
[V:5]z4 |
[V:1]_b/c'/b/a/ ga |
[V:2]GA _BA |
[V:3]z4 |
[V:4]D4- |
[V:5]G,,2 z2 |
[V:1]_b/c'/b/a/ gg |
[V:2]GA _BB |
[V:3]z4 |
[V:4]D4 |
[V:5]G,,2 z2 |
[V:1]_a4- |
[V:2]_A4- |
[V:3]z4 |
[V:4]_E4- |
[V:5]C,C, C,C, |
[V:1]a_a _bc' |
[V:2]A4 |
[V:3]z4 |
[V:4]E4 |
[V:5]C,C, C,C, |
[V:1]c'_b f'_e' |
[V:2]F4- |
[V:3]z4 |
[V:4]_A4 |
[V:5]D,D, D,D, |
[V:1]d'c' _b_a |
[V:2]F4- |
[V:3]z4 |
[V:4]_B4 |
[V:5]D,D, D,D, |
[V:1]_ag af |
[V:2]F_E c_A |
[V:3]z4 |
[V:4]_B,B, _A,A, |
[V:5]_E,E, _A,,A,, |
[V:1]f_e ed |
[V:2]_AG GF |
[V:3]z4 |
[V:4]_B,B, B,B, |
[V:5]_B,,B,, B,,B,, |
[V:1]_e4- |
[V:2]_E2 z2 |
[V:3]z4 |
[V:4]_BG BG |
[V:5]G,_E, G,E, |
[V:1]e4 |
[V:2]z4 |
[V:3]z4 |
[V:4]_B/_A/G/A/ BG |
[V:5]G,/F,/_E,/F,/ G,E, |
[V:1]e4- |
[V:2]_BG BG |
[V:3]z4 |
[V:4]GE GE |
[V:5]C,4 |
[V:1]e4 |
[V:2]_B/_A/G/A/ BG |
[V:3]z4 |
[V:4]G/F/E/F/ GE |
[V:5]C,4 |
[V:1]f4- |
[V:2]F2 z2 |
[V:3]z4 |
[V:4]c_A cA |
[V:5]_A,F, A,F, |
[V:1]f4 |
[V:2]z4 |
[V:3]z4 |
[V:4]c/_B/_A/B/ cA |
[V:5]_A,/G,/F,/G,/ A,F, |
[V:1]^f4- |
[V:2]cA cA |
[V:3]z4 |
[V:4]A^F AF |
[V:5]D,4 |
[V:1]f4 |
[V:2]c/B/A/B/ cA |
[V:3]z4 |
[V:4]A/G/^F/G/ AF |
[V:5]D,4 |
[V:1]g/_a/g/^f/ gg |
[V:2]B2 _ee |
[V:3]z4 |
[V:4]G2 cc |
[V:5]G,2 z2 |
[V:1]g/_a/g/^f/ gg |
[V:2]dd z2 |
[V:3]z4 |
[V:4]BB _EE |
[V:5]z2 C,C, |
[V:1]g/_a/g/^f/ gg |
[V:2]z2 _ee |
[V:3]z4 |
[V:4]DD cc |
[V:5]B,,B,, z2 |
[V:1]g/_a/g/^f/ gg |
[V:2]dd z2 |
[V:3]z4 |
[V:4]BB _EE |
[V:5]z2 C,C, |
[V:1]g/_a/g/^f/ gg |
[V:2]z4 |
[V:3]z4 |
[V:4]DD z2 |
[V:5]B,,B,, z2 |
[V:1]gg gg |
[V:2]z4 |
[V:3]z4 |
[V:4]z4 |
[V:5]z4 |
[V:1]g^f gf |
[V:2]z4 |
[V:3]z4 |
[V:4]z4 |
[V:5]z4 |
[V:1]g^f gf |
[V:2]z4 |
[V:3]z4 |
[V:4]z4 |
[V:5]z4 |
[V:1]gf gf |
[V:2]z4 |
[V:3]z4 |
[V:4]z4 |
[V:5]z4 |
[V:1]gf gf |
[V:2]z4 |
[V:3]z4 |
[V:4]z4 |
[V:5]z4 |
[V:1]ge ge |
[V:2]ez ez |
[V:3]z4 |
[V:4]Ez Ez |
[V:5]Cz Cz |
[V:1]g/f/e/f/ ge |
[V:2]e2 z2 |
[V:3]z4 |
[V:4]E2 z2 |
[V:5]C2 z2 |
[V:1]g/f/e/f/ g/f/e/f/ |
[V:2][cE][Ec] [cE][Ec] |
[V:3]z4 |
[V:4][EG,][EG,] [EG,][EG,] |
[V:5]CC CC |
[V:1]g/f/e/f/ ge |
[V:2][E2c2] z2 |
[V:3]z4 |
[V:4][G,2E2] z2 |
[V:5]C2 z2 |
[V:1]aa gf/g/ |
[V:2]^cc cc |
[V:3]z4 |
[V:4]EE EE |
[V:5]A,A, A,A, |
[V:1]ff gf/g/ |
[V:2]dd BB |
[V:3]z4 |
[V:4]DD DD |
[V:5]DD G,G, |
[V:1]ee fe/d/ |
[V:2]cc AG/F/ |
[V:3]z4 |
[V:4]CC F,F, |
[V:5]CC F,F, |
[V:1]c2 Bz |
[V:2]E2 Dz |
[V:3]z4 |
[V:4]G,2 z2 |
[V:5]G,2 G,,z |
[V:1]gz gz |
[V:2]dB dB |
[V:3]z4 |
[V:4]BG BG |
[V:5]z4 |
[V:1]g2 z2 |
[V:2]d/c/B/c/ dB |
[V:3]z4 |
[V:4]B/A/G/A/ BG |
[V:5]z4 |
[V:1]gz gz |
[V:2]ec ec |
[V:3]z4 |
[V:4]cG cG |
[V:5]z4 |
[V:1]g2 z2 |
[V:2]e/d/c/d/ ec |
[V:3]z4 |
[V:4]c/B/A/B/ cG |
[V:5]z4 |
[V:1]gg gg |
[V:2]f/g/f/g/ e/f/e/f/ |
[V:3]z4 |
[V:4]d/e/d/e/ c/d/c/d/ |
[V:5]z4 |
[V:1]g2 z2 |
[V:2]d/c/B/A/ G/F/E/D/ |
[V:3]z4 |
[V:4]B/A/G/F/ E/D/C/B,/ |
[V:5]z4 |
[V:1]c'z c'z |
[V:2]Ez [ec]z |
[V:3]z4 |
[V:4]Cz Gz |
[V:5]_B,G, B,G, |
[V:1]c'2 z2 |
[V:2][e2c2] z2 |
[V:3]z4 |
[V:4]G2 z2 |
[V:5]_B,/A,/G,/A,/ B,G, |
[V:1]c'c' c'c' |
[V:2][ec][ec] [ec][ec] |
[V:3]z4 |
[V:4]GG GG |
[V:5]_B,/A,/G,/A,/ B,/A,/G,/A,/ |
[V:1]c'2 z2 |
[V:2][e2c2] z2 |
[V:3]z4 |
[V:4]G2 z2 |
[V:5]_B,/A,/G,/A,/ B,G, |
[V:1]a/b/c'/a/ gg |
[V:2]c4- |
[V:3]z4 |
[V:4]C4 |
[V:5]F,F, E,E, |
[V:1]f/g/a/f/ ee |
[V:2]cB cc |
[V:3]z4 |
[V:4]FF GG |
[V:5]D,D, C,C, |
[V:1]d/e/f/d/ B/c/d/B/ |
[V:2]AA D/E/F/D/ |
[V:3]z4 |
[V:4]AA FF |
[V:5]F,F, G,G, |
[V:1]c2 z2 |
[V:2]E2 z2 |
[V:3]z4 |
[V:4]E2 z2 |
[V:5]C,2 z2 |
[V:1]ge z2 |
[V:2]ec z2 |
[V:3]z4 |
[V:4]z2 GE |
[V:5]z2 E,C, |
[V:1]eg z2 |
[V:2]ce z2 |
[V:3]z4 |
[V:4]z2 EG |
[V:5]z2 C,E, |
[V:1]g/f/e/f/ ge |
[V:2]e/d/c/d/ ec |
[V:3]z4 |
[V:4]z4 |
[V:5]z4 |
[V:1]z4 |
[V:2]z4 |
[V:3]z4 |
[V:4]G/F/E/F/ GE |
[V:5]E,/D,/C,/D,/ E,C, |
[V:1]e/f/g/f/ eg |
[V:2]c/d/e/d/ ce |
[V:3]z4 |
[V:4]z4 |
[V:5]z4 |
[V:1]z4 |
[V:2]z4 |
[V:3]z4 |
[V:4]E/F/G/F/ EG |
[V:5]C,/D,/E,/D,/ C,E, |
[V:1]g/f/e/f/ g/f/e/f/ |
[V:2]e/d/c/d/ e/d/c/d/ |
[V:3]z4 |
[V:4]z4 |
[V:5]z4 |
[V:1]g/f/e/f/ g/f/e/f/ |
[V:2]e/d/c/d/ e/d/c/d/ |
[V:3]z4 |
[V:4]E/F/G/F/ E/F/G/F/ |
[V:5]C,/D,/E,/D,/ C,/D,/E,/D,/ |
[V:1]g/f/e/f/ g/f/g/a/ |
[V:2]e/d/c/d/ e/d/e/f/ |
[V:3]z4 |
[V:4]E/F/G/F/ E/F/G/F/ |
[V:5]C,/D,/E,/D,/ C,C, |
[V:1]_b2 z2 |
[V:2]g2 z2 |
[V:3]z4 |
[V:4]E2 z2 |
[V:5]C,2 z2 |
[V:1]a4- |
[V:2]Ac Ac |
[V:3]z4 |
[V:4]CC CC |
[V:5]F,A, F,A, |
[V:1]ab/c'/ b/a/g/f/ |
[V:2]A2 z2 |
[V:3]z4 |
[V:4]C2 z2 |
[V:5]F,2 z2 |
[V:1]e^f/g/ f/g/f/g/ |
[V:2]cc cc |
[V:3]z4 |
[V:4]EE EE |
[V:5]G,G, G,G, |
[V:1]ga/g/ f/e/d/c/ |
[V:2]cc cc |
[V:3]z4 |
[V:4]EE EE |
[V:5]G,G, G,G, |
[V:1]Gz [db]z |
[V:2]cc Bd |
[V:3]z4 |
[V:4]DD DD |
[V:5]G,G, G,G, |
[V:1][c'2e2] z2 |
[V:2]c2 z2 |
[V:3]z4 |
[V:4]C2 z2 |
[V:5]C,2 z2 |
[V:1]FD FD |
[V:2]DB, DB, |
[V:3]z4 |
[V:4]G,G, G,G, |
[V:5]G,2 z2 |
[V:1]E/F/G/F/ EG |
[V:2]C/D/E/D/ CC |
[V:3]z4 |
[V:4]G,G, G,G, |
[V:5]C,2 z2 |
[V:1]FD FD |
[V:2]DB, DB, |
[V:3]z4 |
[V:4]G,G, G,G, |
[V:5]G,2 z2 |
[V:1]Eg gg |
[V:2]C2 z2 |
[V:3]z4 |
[V:4]G,2 z2 |
[V:5]C,2 z2 |
[V:1]gg gg |
[V:2]fd fd |
[V:3]z4 |
[V:4]dB dB |
[V:5]Gz Gz |
[V:1]gg gg |
[V:2]e/f/g/f/ eg |
[V:3]z4 |
[V:4]c/d/e/d/ ce |
[V:5]C2 z2 |
[V:1]gg gg |
[V:2]fd fd |
[V:3]z4 |
[V:4]dB dB |
[V:5]Gz Gz |
[V:1]g2 z2 |]
[V:2]e2 z2 |]
[V:3]z4 |]
[V:4]c2 z2 |]
[V:5]C2 z2 |]

